server/website/public/icons/base/design.svg

<svg width="48" height="48" viewBox="0 0 48 48" fill="none" xmlns="http://www.w3.org/2000/svg">
<g clip-path="url(#clip0_1395_22276)">
<path d="M16.2985 22.7888L22.7918 16.2777L16.9552 10.4206L14.6667 12.7066C14.4013 12.972 14.0791 13.117 13.7001 13.1416C13.321 13.1662 12.9732 13.0212 12.6567 12.7066C12.3421 12.3919 12.1848 12.0536 12.1848 11.6915C12.1848 11.3295 12.3421 10.9911 12.6567 10.6765L14.9254 8.40757L9.37598 2.85752L2.86567 9.36859L16.2985 22.7888ZM38.57 45.08L45.0803 38.5689L39.5338 33.0188L37.248 35.2878C36.9713 35.5645 36.6453 35.7124 36.2701 35.7313C35.8948 35.7503 35.5499 35.6024 35.2353 35.2878C34.9206 34.9731 34.7643 34.6376 34.7662 34.2813C34.7681 33.9249 34.9244 33.5894 35.2353 33.2747L37.5039 30.9888L31.7043 25.2056L25.2082 31.6996L38.57 45.08ZM34.5615 8.55542L39.4741 13.4657L44.4378 8.5014L39.511 3.57402L34.5615 8.55542ZM4.07676 46.223C3.4172 46.223 2.86946 46.005 2.43355 45.569C1.99763 45.133 1.77873 44.5852 1.77683 43.9256V38.1907C1.77683 37.8856 1.8299 37.6003 1.93603 37.3349C2.04217 37.0696 2.21843 36.8137 2.46482 36.5672L14.2687 24.762L0.770433 11.2082C0.256811 10.6945 0 10.0822 0 9.37143C0 8.66062 0.256811 8.04742 0.770433 7.53184L7.53945 0.764879C8.05307 0.251197 8.66524 -0.00374936 9.37598 4.16595e-05C10.0867 0.00383268 10.6989 0.263518 11.2125 0.779096L24.8387 14.3329L37.538 1.61501C37.8507 1.30226 38.1805 1.07669 38.5274 0.938318C38.8742 0.799946 39.2438 0.73076 39.6361 0.73076C40.0284 0.73076 40.398 0.799946 40.7448 0.938318C41.0917 1.07669 41.4224 1.30226 41.737 1.61501L46.3767 6.44003C46.6913 6.75279 46.9093 7.08261 47.0306 7.42949C47.1519 7.77636 47.2116 8.14599 47.2097 8.53836C47.2078 8.93073 47.1471 9.28898 47.0277 9.61311C46.9083 9.93724 46.6922 10.2557 46.3795 10.5684L33.7854 23.2323L47.2324 36.7862C47.7441 37.2999 48 37.9121 48 38.6229C48 39.3337 47.7441 39.946 47.2324 40.4597L40.4634 47.2266C39.9498 47.7422 39.3376 48 38.6269 48C37.9161 48 37.304 47.7432 36.7903 47.2295L23.2353 33.7297L11.4314 45.5349C11.185 45.7813 10.9292 45.9576 10.6638 46.0637C10.3985 46.1699 10.1132 46.223 9.8081 46.223H4.07676Z" fill="black"/>
</g>
<defs>
<clipPath id="clip0_1395_22276">
<rect width="48" height="48" fill="white"/>
</clipPath>
</defs>
</svg>

<svg width="48" height="48" fill="none" xmlns="http://www.w3.org/2000/svg"><g clip-path="url(#prefix__clip0_1395_22276)"><path d="M16.299 22.789l6.493-6.511-5.837-5.857-2.288 2.286c-.266.265-.588.41-.967.435-.379.024-.727-.12-1.043-.435-.315-.315-.472-.653-.472-1.016 0-.362.157-.7.472-1.014l2.268-2.27-5.549-5.55-6.51 6.512 13.433 13.42zM38.57 45.08l6.51-6.511-5.546-5.55-2.286 2.269a1.447 1.447 0 01-.978.443c-.375.02-.72-.129-1.035-.443-.314-.315-.47-.65-.469-1.007.002-.356.158-.692.47-1.006l2.268-2.286-5.8-5.783-6.496 6.494L38.57 45.08zM34.562 8.555l4.912 4.91 4.964-4.964-4.927-4.927-4.95 4.981zM4.077 46.223c-.66 0-1.208-.218-1.643-.654-.436-.436-.655-.984-.657-1.643V38.19c0-.305.053-.59.159-.856.106-.265.282-.521.529-.768l11.804-11.805L.77 11.208C.257 10.694 0 10.082 0 9.371c0-.71.257-1.324.77-1.84L7.54.766C8.052.25 8.664-.004 9.375 0c.71.004 1.323.264 1.837.78l13.626 13.553L37.538 1.615c.313-.313.643-.538.99-.677a2.964 2.964 0 011.108-.207c.392 0 .762.069 1.109.207.347.139.677.364.992.677l4.64 4.825c.314.313.532.643.654.99.12.346.18.716.179 1.108-.002.393-.063.751-.182 1.075-.12.324-.336.643-.648.955L33.785 23.232l13.447 13.554c.512.514.768 1.126.768 1.837 0 .71-.256 1.323-.768 1.837l-6.769 6.767c-.513.515-1.125.773-1.836.773-.71 0-1.323-.257-1.837-.77l-13.555-13.5-11.804 11.805a2.31 2.31 0 01-.767.529c-.265.106-.55.159-.856.159H4.077z" fill="#000"/></g><defs><clipPath id="prefix__clip0_1395_22276"><path fill="#fff" d="M0 0h48v48H0z"/></clipPath></defs></svg>
